X: 1
T: Abi Gezint    [Dm]
S: Handout at 2018 NEFFA Klezmer Jam, with C part from another transcription.
Z: 2018 John Chambers <jc:trillian.mit.edu>
L: 1/16
M: 2/4
K: Dm
A, "A"|\
"Dm"D2FA- A3A | "Gm6"c2B2 "A7"AG2G |\
"Dm"D2EF- F3G | "Gm6"A2G2 "A7"FE2E |\
"Dm"A,2DF- F4 | "E7"F2E2 "A7"D^C2D- |\
[1 D4- [c4D4-] | [=BD4]A2A- "A7"A3 :|
[2 "Dm"D4- "Gm"D4 | "Dm"z2D2 "A7"E2"Dm"F2 "B"|[|\
"Gm"G8 | z2EG (3F2E2D2 |\
"Dm"A8 | z2D2 E2F2 |\
"Gm"G3D G3D | "Gm"G3A "G7"cBAG |
"F"A4 "Gm"G4 | "G#dim"F3E- "A7"E3 |]|\
A, "A3"|\
"Dm"D2FA- A3A | "Gm"c2B2 "A7"AG2G |\
"Dm"D2EF- F3G | "Gm6" A2G2 "A7"FE2E |\
"Dm"A,2DF- F4 | "E7"F2E2 "A7"D2^CD- |
"Dm"D4- "Gm"D4- | "Dm"D6 !fine!z2 \
"C"|:\
"Dm"dddd "D7"Ac3 | "Gm"BBBB EB3 | "A7"AAAA E2F2 | "Dm"D6 D2 |
[1"A"E2F2 G2E2 | "Dm"F2G2 A3A | "E7"^G2A2 =B2^c2 | "A7"A8 :|\
[2"A"E2E2 "B7"^F2F2 | "E7"^G2G2 "A"A2A2 | "Bm"=B2B2 "E7"^c2c2 | "A7"A6 "d.C."z|]
% - - - - - - - - - -
%%begintext
%% A bisl zun a bisl regn, a ruik ort dem kop tsu leygn, Abi gezunt, ken men gliklekh zayn.
%% A shukh, a zok, a kleyd on lates, In keshene dray fir Zlotes, Abi gezunt, ken men gliklekh zayn.
%%endtext
%%begintext
%% Di luft iz fray, far yedn glaykh, di zun zi sheynt far yedn eynem orem oder raykh.
%% A bisl freyd, a bisl lakhn, amol mit fraynt a shnepzl makhn, Abi gezunt, ken men gliklekh zayn.
%%endtext
%%begintext
%% Eyner sukht ashires, eyner sukht gvires, eynem di gantse velt.
%% Eyner meynt dos gantse glik hengt nor op in gelt.
%% Zoln ale zikhn, zoln ale krikhn, nor ikh trakht bay zikh.
%% Ikh darf dos oyf kaporez vayl dos glik shteyt bay mayn tir.
%%endtext
%%center - - - - - - -
%%begintext align
%% A little bit of sun, a bit of rain, a quiet place to put your head down,
%% As long as you're well, you can be happy.
%% A shoe, a sock, a dress with no patches, in your pocket three or four dollars,
%% As long as you're well, you can be happy.
%%endtext
%%begintext align
%% The air is free for everyone equally, The sun shines for everyone,
%% poor or rich, Some joy, some laughter,
%% a drink with friends, as long as you're well, you can be happy.
%%endtext
%%begintext align
%% One person seeks riches, one seeks wealth, One - the whole world.
%% Another thinks complete joy depends only on money. Let them all seek,
%% let them all grovel. But I myself think - I don't need it because
%% Happiness stands at my door.
%%endtext

%%sep 1 1 500
%%sep 1 1 500

